X: 3436
M: 2/4
L: 1/16
K: G
|:\
d2g2B2g2 | f2AB cBA2 | c2a2A2a2 | g2Bc dcB2 |\
d2g2B2g2 | f2AB cBA2 | F2d2 D2d2 |[1 g2GA BAG2 :|[2 [g2B2][g2B2][g2B2] z2 H|:\
[K:D] "TRIO."\
fg f4 a2 | a2g2g2A2 | ef e4 g2 | g2f2f2z2 |\
fg f4 a2 | a2g2g2A2 | ef e4 a2 | d2d2d2"_D.C."z2 :|


